assets/icons/qvision/unarchive.svg

<svg xmlns="http://www.w3.org/2000/svg" enable-background="new 0 0 24 24" height="24" viewBox="0 0 24 24" width="24"><g><rect fill="none" height="24" width="24" x="0"/></g><g><g><g><path d="M20.55,5.22l-1.39-1.68C18.88,3.21,18.47,3,18,3H6C5.53,3,5.12,3.21,4.85,3.55L3.46,5.22C3.17,5.57,3,6.01,3,6.5V19 c0,1.1,0.89,2,2,2h14c1.1,0,2-0.9,2-2V6.5C21,6.01,20.83,5.57,20.55,5.22z M12,9.5l5.5,5.5H14v2h-4v-2H6.5L12,9.5z M5.12,5 l0.82-1h12l0.93,1H5.12z"/></g></g></g></svg>

<svg width="24" height="24" viewBox="0 0 24 24" fill="none" xmlns="http://www.w3.org/2000/svg">
<g clip-path="url(#clip0_147_2288)">
<path d="M20.55 5.22L19.16 3.54C18.88 3.21 18.47 3 18 3H6C5.53 3 5.12 3.21 4.85 3.55L3.46 5.22C3.17 5.57 3 6.01 3 6.5V19C3 20.1 3.89 21 5 21H19C20.1 21 21 20.1 21 19V6.5C21 6.01 20.83 5.57 20.55 5.22ZM12 9.5L17.5 15H14V17H10V15H6.5L12 9.5ZM5.12 5L5.94 4H17.94L18.87 5H5.12Z" fill="#323232"/>
</g>
<defs>
<clipPath id="clip0_147_2288">
<rect width="24" height="24" fill="white"/>
</clipPath>
</defs>
</svg>
